X:29
T:A Virgen mui groriosa (Cantiga 42)
C:Las Cantigas de Santa Maria, 1252
C:Anon., Alfonso X el sabio (1221-1284)
R:Cantigas
O:
M:3/4
L:1/4
K:C
%%staves [1 2]
V:1
G | d2d | dcA | B2c | BAG | B2B/A/ | G2F | ABA- | A2A |
d2d | dcA | B2c | BAG | B2B/A/ | G2F | A2G- | G3 ||
BAG | FAB | cBA | BAG | BAG | FA2 | B/A/GF | G3 |
BAG | FAB | cBA | BAG | BAG | FA2 | B/A/GF | G2G |
d2d | dcA | B2c | BAG | B2B/A/ | G2F | ABA- | A2A |
d2d | dcA | B2c | BAG | B2B/A/ | G2F | A2G- | G2 |]
V:2
z | G3 | G2D | G3 | G3 | G3 | G2D | D3 | D2D |
G3 | G2D | G3 | G3 | G3 | G2D | D3 | G3 ||
G3 | D2D | G2D | G3 | G3 | D2D | G2D | G3 |
G3 | DFG | FG>D | GFD | G2G | D>EF | G2D | G2G |
GDG | GF2 | GDF | G3 | G3 | GD2 | FGF | FD/E/F |
GD2 | D/E/FD | GDA | G2D | G2D/E/ | G2D | FD2 | G,2 |]
V:3
z | G,3 | G,2D, | G,3 | G,3 | G,3 | G,2D, | D,3 | D,2D, |
G,3 | G,2D, | G,3 | G,3 | G,3 | G,2D, | D,3 | G,3 ||
G,3 | D,2D, | G,2D, | G,3 | G,3 | D,2D, | G,2D, | G,3 |
G,3 | D,F,G, | F,G,>D, | G,F,D, | G,2G, | D,>E,F, | G,2D, | G,2G, |
G,D,G, | G,F,2 | G,D,F, | G,3 | G,3 | G,D,2 | F,G,F, | F,D,/E,/F, |
G,D,2 | D,/E,/F,D, | G,D,A, | G,2D, | G,2D,/E,/ | G,2D, | F,D,2 | G,,2 |]





%%header "$P0	 $IR 	$P1"
%%footer $D - Éditions Galouvielle - 2009 - À usage librement privé dans le cadre familial

